build/web/dist/spark/icons/AlarmOnFill.svg

<svg viewBox="0 0 24 24" xmlns="http://www.w3.org/2000/svg" data-title="AlarmOnFill" fill="currentColor" stroke="none">
  <path d="M7.12567 2.40793C7.4567 2.85337 7.36111 3.48073 6.91216 3.80918C6.00104 4.47574 5.25622 5.3554 4.74131 6.37717C4.36241 7.12902 4.11631 7.94141 4.01249 8.77701C3.94424 9.32628 3.44013 9.71667 2.88652 9.64896C2.33291 9.58125 1.93945 9.08108 2.00769 8.5318C2.13945 7.47135 2.45196 6.43858 2.93459 5.48087C3.59046 4.1794 4.54222 3.0529 5.71338 2.1961C6.16233 1.86766 6.79463 1.9625 7.12567 2.40793Z"/>
  <path fill-rule="evenodd" clip-rule="evenodd" d="M14.0534 4.16227C15.1044 4.49476 16.0706 5.07481 16.8642 5.86576C18.1664 7.16362 18.8971 8.92294 18.8971 10.7564C18.8971 13.5382 19.3713 15.0735 19.8604 15.9651C20.2522 16.6794 20.4423 17.5538 20.1184 18.3386C19.7582 19.2114 18.9126 19.6336 17.966 19.6336H15.0317L15.0305 19.6383C14.853 20.3147 14.4543 20.9136 13.8969 21.3411C13.3395 21.7686 12.655 22.0005 11.9505 22.0005C11.246 22.0005 10.5614 21.7686 10.004 21.3411C9.44665 20.9136 9.04797 20.3147 8.87048 19.6383L8.86926 19.6336H5.93461C4.98925 19.6336 4.14314 19.2129 3.78334 18.3393C3.46016 17.5547 3.65159 16.6811 4.04267 15.9681C4.53096 15.0777 5.00452 13.5422 5.00452 10.7564C5.00452 8.92294 5.73525 7.16362 7.03743 5.86576C7.83095 5.07487 8.79709 4.49485 9.84798 4.16234C9.88885 3.04506 10.8146 2.15176 11.9507 2.15176C13.0867 2.15176 14.0125 3.04502 14.0534 4.16227Z"/>
  <path d="M18.2866 2.1961C17.8377 1.86766 17.2054 1.9625 16.8743 2.40793C16.5433 2.85337 16.6389 3.48073 17.0879 3.80918C17.999 4.47574 18.7438 5.3554 19.2587 6.37717C19.6376 7.12902 19.8837 7.94141 19.9875 8.77701C20.0558 9.32628 20.5599 9.71667 21.1135 9.64896C21.6671 9.58125 22.0606 9.08108 21.9923 8.5318C21.8606 7.47135 21.5481 6.43858 21.0654 5.48087C20.4096 4.1794 19.4578 3.0529 18.2866 2.1961Z"/>
</svg>

<svg viewBox="0 0 24 24" xmlns="http://www.w3.org/2000/svg" data-title="AlarmOnFill" fill="currentColor" stroke="none">
  <path d="M7.13 2.41c.33.45.24 1.07-.21 1.4-.91.67-1.66 1.55-2.17 2.57-.38.75-.62 1.56-.73 2.4-.07.55-.57.94-1.13.87-.55-.07-.95-.57-.88-1.12.13-1.06.44-2.09.93-3.05.66-1.3 1.61-2.43 2.78-3.28.45-.33 1.08-.23 1.41.21ZM14.05 4.16c1.05.33 2.02.91 2.81 1.7 1.3 1.3 2.03 3.06 2.03 4.89 0 2.78.47 4.32.96 5.21.39.71.58 1.59.26 2.37-.36.87-1.21 1.3-2.15 1.3h-2.94c-.18.68-.58 1.28-1.13 1.71s-1.24.66-1.95.66-1.39-.23-1.95-.66c-.56-.43-.96-1.03-1.13-1.7h0s-2.93 0-2.93 0c-.95 0-1.79-.42-2.15-1.29-.32-.78-.13-1.66.26-2.37.49-.89.96-2.43.96-5.21 0-1.83.73-3.59 2.03-4.89.79-.79 1.76-1.37 2.81-1.7.04-1.12.97-2.01 2.1-2.01s2.06.89 2.1 2.01ZM18.29 2.2c-.45-.33-1.08-.23-1.41.21-.33.45-.24 1.07.21 1.4.91.67 1.66 1.55 2.17 2.57.38.75.62 1.56.73 2.4.07.55.57.94 1.13.87s.95-.57.88-1.12c-.13-1.06-.44-2.09-.93-3.05-.66-1.3-1.61-2.43-2.78-3.28Z"/>
</svg>
